public/assets/imgs/page/homepage5/figwire.svg

<svg width="268" height="69" viewBox="0 0 268 69" fill="none" xmlns="http://www.w3.org/2000/svg">
<g clip-path="url(#clip0_2_482)">
<path d="M23.3442 47.1946L22.7095 45.643C21.8632 43.4567 20.1705 41.7641 17.9842 40.9178L16.4326 40.283L15.7979 40.0009L12.2011 38.5904L11.4253 38.3083L7.68737 36.8272L4.65474 35.6283C4.16105 35.4167 3.87895 35.0641 3.87895 34.4999C3.87895 34.0062 4.16105 33.583 4.65474 33.3714L7.68737 32.1725L11.4253 30.6914L12.2011 30.4093L10.72 26.9536L10.6495 26.8125L7.05263 28.223L2.82105 29.9157C1.76316 30.3388 1.05789 30.903 0.634737 31.6788C0.211579 32.3841 0 33.3714 0 34.4999C0 35.6283 0.211579 36.6157 0.634737 37.3914C1.05789 38.1672 1.76316 38.7314 2.82105 39.0841L7.05263 40.7767L10.6495 42.1872L10.7905 42.2578L14.2463 43.5978L15.4453 40.8472L14.2463 43.5978L15.0221 43.8799C17.2084 44.7262 18.9011 46.4188 19.7474 48.6051L20.0295 49.3809L23.6263 47.8293L23.3442 47.1946Z" fill="#DDE1E2"/>
<path d="M50.9905 49.8746L49.1568 45.7135L47.6053 42.1872L47.5347 42.0462L46.0537 38.5904L44.5021 39.2251L46.0537 38.5904L45.7011 37.8851C44.7842 35.7693 44.7842 33.3009 45.7011 31.1851L46.0537 30.4799L42.3863 29.0693L42.1042 29.7041L41.4695 31.2557C40.5526 33.3714 40.5526 35.8399 41.4695 37.9557L42.1042 39.5072L42.3863 40.142L43.9379 43.7388L45.56 43.1041L43.9379 43.7388L44.2905 44.5146L45.9126 48.182L47.2526 51.2146C47.4642 51.7083 47.3937 52.1314 46.9705 52.4841C46.6179 52.8367 46.1947 52.9072 45.7011 52.7662L42.6684 51.4262L39.001 49.8041L38.2253 49.4514L36.8853 52.9072L36.8147 53.0483L40.3411 54.5999L44.5021 56.4335C45.4895 56.8567 46.4768 56.9978 47.2526 56.7862C48.0989 56.5746 48.8747 56.0104 49.7211 55.2346C50.5674 54.3883 51.061 53.6125 51.2726 52.7662C51.5547 51.7788 51.4137 50.862 50.9905 49.8746Z" fill="#C3C9CB"/>
<path d="M35.4042 12.4252L33.7116 8.19361C33.2884 7.13572 32.7242 6.43045 32.0189 6.0073C31.2432 5.58414 30.3263 5.37256 29.1274 5.37256C27.9989 5.37256 27.0116 5.58414 26.2358 6.0073C25.46 6.43045 24.8958 7.13572 24.5432 8.19361L22.8505 12.4252L21.44 16.022L21.5811 16.0926L23.8379 17.0799L21.5811 16.0926L21.44 16.022L21.3695 16.1631L20.0295 19.6189L19.7474 20.3947C18.9011 22.581 17.2084 24.2736 15.0221 25.1199L14.2463 25.402L15.7979 28.9989L16.4326 28.7168L17.9842 28.082C20.1705 27.2357 21.8632 25.5431 22.7095 23.3568L23.3442 21.8052L23.6263 21.1705L22.6389 20.7473L23.6263 21.1705L25.0368 17.5031L25.3189 16.7273L26.8 12.9894L27.9989 9.95677C28.2105 9.46308 28.5632 9.18098 29.1274 9.18098H29.1979C29.6916 9.18098 30.1147 9.46308 30.3263 9.95677L31.5253 12.9894L33.0063 16.7273L33.2884 17.5031L36.7442 16.022L36.8853 15.9515L35.4042 12.4252Z" fill="#DDE1E2"/>
<path d="M51.2726 16.3746C51.061 15.5283 50.4968 14.7525 49.7211 13.9062C48.8747 13.0599 48.0989 12.5662 47.2526 12.3546C46.4063 12.1431 45.4895 12.2136 44.5021 12.7073L40.3411 14.541L36.8147 16.0925H36.6737L33.2179 17.5736L32.4421 17.8557C30.3263 18.7725 27.8579 18.7725 25.7421 17.8557L24.9663 17.5031L23.5558 21.1704L24.1905 21.4525L25.7421 22.0873C27.8579 23.0041 30.3263 23.0041 32.4421 22.0873L33.9937 21.4525L34.6284 21.1704L34.3463 20.5357L34.6284 21.1704L38.2253 19.6189L36.8853 16.1631V16.0925V16.1631L38.2253 19.6189L39.0011 19.2662L42.6684 17.6441L45.7011 16.3041C46.1947 16.0925 46.6179 16.1631 46.9705 16.5862C47.3232 16.9389 47.3937 17.362 47.2526 17.8557L45.9126 20.8883L44.2905 24.5557L43.9379 25.3315L47.3937 26.6715L47.5347 26.742L49.0863 23.2157L50.92 19.0546C51.4137 18.1378 51.5547 17.221 51.2726 16.3746Z" fill="#C3C9CB"/>
<path d="M57.62 31.6084C57.1968 30.8326 56.4916 30.2684 55.4337 29.8452L51.2021 28.1526L47.6053 26.7421L47.5347 26.8126L47.6053 26.7421L47.4642 26.6715L44.0084 25.3315L43.2326 25.1199C41.0463 24.2736 39.3537 22.581 38.5074 20.3947L38.2253 19.6189L34.6284 21.1705L34.9105 21.8052L35.5453 23.3568C36.3916 25.5431 38.0842 27.2357 40.2705 28.0821L41.8221 28.7168L42.4568 28.9989L46.0537 30.4094L46.9705 28.3642L46.0537 30.4094L46.8295 30.6915L50.5674 32.1726L53.6 33.3715C54.0937 33.5831 54.3758 33.9357 54.3758 34.4999C54.3758 34.9936 54.0937 35.3463 53.6 35.6284L50.5674 36.8273L46.8295 38.3084L46.0537 38.5905L47.5347 42.0463L47.6053 42.1873L51.2021 40.7768L55.4337 39.0842C56.4916 38.661 57.1968 38.0968 57.62 37.3915C58.0432 36.6157 58.2547 35.6989 58.2547 34.4999C58.2547 33.3715 58.0432 32.3842 57.62 31.6084Z" fill="#DDE1E2"/>
<path d="M33.9937 47.5473L32.4421 46.842C30.3263 45.9251 27.8579 45.9251 25.7421 46.842L24.1905 47.5473L23.5558 47.8294L19.9589 49.3809L19.1832 49.7336L15.5158 51.3557L12.6242 52.6251C12.1305 52.8367 11.7074 52.7662 11.3547 52.343C11.0021 51.9904 10.9316 51.5673 11.0726 51.0736L12.4126 48.0409L14.0347 44.3736L14.3874 43.5978L10.9316 42.2578L10.7905 42.1873L9.23895 45.7136L7.40526 49.8746C6.9821 50.862 6.84105 51.8494 7.05263 52.6251C7.26421 53.4715 7.82842 54.2473 8.60421 55.0936C9.45053 55.9399 10.2263 56.4336 11.0726 56.6451C11.9189 56.8567 12.8358 56.7862 13.8232 56.2925L17.9842 54.4588L21.5105 52.9073L21.6516 52.8367L25.1074 51.3557L24.2611 49.1694L25.1074 51.3557L25.8126 51.003C27.9284 50.0862 30.3968 50.0862 32.5126 51.003L33.2884 51.3557L34.6989 47.7588L33.9937 47.5473Z" fill="#C3C9CB"/>
<path d="M17.9137 14.4703L13.7526 12.6366C12.7653 12.2134 11.7779 12.0724 11.0021 12.284C10.1558 12.4956 9.38 13.0598 8.53368 13.8356C7.68737 14.6819 7.19368 15.4577 6.9821 16.304C6.77052 17.1503 6.84105 18.0671 7.33474 19.0545L9.16842 23.2156L10.72 26.7419L10.7905 26.8829L12.2716 30.3387L14.0347 29.6334L12.2716 30.3387L12.6242 31.1145C13.5411 33.2303 13.5411 35.6987 12.6242 37.8145L12.2716 38.5198L15.8684 39.9303L16.1505 39.2956L16.7853 37.744C17.7021 35.6282 17.7021 33.1598 16.7853 31.044L16.08 29.4924L15.7979 28.8577L14.2463 25.2608L13.8937 24.485L12.2716 20.8177L10.9316 17.785C10.72 17.2913 10.7905 16.8682 11.2137 16.5156C11.5663 16.1629 11.9895 16.0924 12.4832 16.2334L15.5158 17.5734L19.1832 19.1956L19.9589 19.5482L21.2989 16.0924L21.3695 15.9513L17.9137 14.4703Z" fill="#C3C9CB"/>
<path d="M42.4568 40.001L41.8221 40.2831L40.2705 40.9178C38.0842 41.7641 36.3916 43.4568 35.5453 45.6431L34.9105 47.1947L34.6284 47.8294L33.2179 51.4262L32.9358 52.202L31.4547 55.9399L30.2558 58.9726C30.0442 59.4662 29.6916 59.7483 29.1274 59.7483C28.6337 59.7483 28.2105 59.4662 27.999 58.9726L26.8 55.9399L25.319 52.202L25.0368 51.4262L21.5811 52.9073L21.44 52.9778L22.8505 56.5747L24.5432 60.8062C24.9663 61.8641 25.5305 62.5694 26.2358 62.9926C27.0116 63.4157 27.9284 63.6273 29.1274 63.6273C30.2558 63.6273 31.2432 63.4157 32.019 62.9926C32.7947 62.5694 33.3589 61.8641 33.7116 60.8062L35.4042 56.5747L36.8147 52.9778H36.7442H36.8147L36.8853 52.8368L38.2253 49.381L36.3211 48.5347L38.2253 49.381L38.5074 48.6052C39.3537 46.4189 41.0463 44.7262 43.2326 43.8799L44.0084 43.5978L42.4568 40.001Z" fill="#DDE1E2"/>
</g>
<path d="M72.3053 52V17.978H91.9449V21.9455H76.6697V32.9556H90.1594V36.9232H76.6697V52H72.3053ZM97.2689 52V25.9131H101.336V52H97.2689ZM97.1697 20.8545V16.143H101.385V20.8545H97.1697ZM111.994 61.0263C109.878 61.0263 108.275 60.4146 107.184 59.1912C106.093 58.001 105.547 56.5462 105.547 54.8269C105.547 53.5705 105.845 52.4298 106.44 51.4049C107.068 50.3799 107.894 49.669 108.919 49.2723C108.258 48.8425 107.729 48.2804 107.332 47.5861C106.969 46.8587 106.787 46.1147 106.787 45.3543C106.787 44.2963 107.118 43.387 107.779 42.6266C108.473 41.8331 109.366 41.2379 110.457 40.8412C109.531 40.0807 108.787 39.1384 108.225 38.0143C107.696 36.8571 107.432 35.5511 107.432 34.0963C107.432 31.352 108.192 29.2029 109.713 27.649C111.234 26.095 113.317 25.318 115.962 25.318C117.318 25.318 118.574 25.6321 119.731 26.2603C120.888 25.6321 121.682 24.9212 122.112 24.1277C122.541 23.3342 122.823 22.5242 122.955 21.6976H126.526C126.526 23.2515 126.129 24.5906 125.335 25.7148C124.575 26.8389 123.517 27.5828 122.161 27.9465C122.889 28.6739 123.451 29.5666 123.847 30.6246C124.277 31.6496 124.492 32.8068 124.492 34.0963C124.492 36.8075 123.732 38.94 122.211 40.494C120.723 42.048 118.706 42.8415 116.16 42.8746H113.433C112.771 42.8746 112.209 43.106 111.746 43.5689C111.283 43.9987 111.052 44.5442 111.052 45.2055C111.052 45.8337 111.283 46.3793 111.746 46.8421C112.242 47.305 112.804 47.5365 113.433 47.5365H120.872C122.756 47.5365 124.244 48.1481 125.335 49.3715C126.459 50.5618 127.022 51.9835 127.022 53.6366C127.022 54.9922 126.724 56.2321 126.129 57.3562C125.567 58.4804 124.707 59.3731 123.55 60.0344C122.426 60.6956 121.037 61.0263 119.384 61.0263H111.994ZM112.639 57.505H119.83C120.69 57.505 121.417 57.1909 122.012 56.5627C122.608 55.9676 122.905 55.2567 122.905 54.4301C122.905 53.5705 122.657 52.8431 122.161 52.248C121.665 51.6859 120.888 51.4049 119.83 51.4049H112.639C111.614 51.4049 110.854 51.6859 110.358 52.248C109.862 52.8431 109.614 53.5705 109.614 54.4301C109.614 55.2567 109.862 55.9676 110.358 56.5627C110.854 57.1909 111.614 57.505 112.639 57.505ZM115.912 39.5021C117.367 39.5021 118.475 39.0227 119.235 38.0639C119.996 37.072 120.376 35.7494 120.376 34.0963C120.376 32.3439 119.996 31.0049 119.235 30.0791C118.475 29.1533 117.367 28.6904 115.912 28.6904C114.491 28.6904 113.4 29.1864 112.639 30.1783C111.879 31.1371 111.498 32.4431 111.498 34.0963C111.498 35.8156 111.879 37.1546 112.639 38.1135C113.4 39.0392 114.491 39.5021 115.912 39.5021ZM134.036 52L127.539 25.9131H132.002L135.276 40.5932C135.441 41.2875 135.606 42.1306 135.772 43.1225C135.937 44.0814 136.069 44.941 136.168 45.7015C136.268 46.4289 136.317 46.7925 136.317 46.7925H136.515C136.515 46.7925 136.549 46.4619 136.615 45.8006C136.681 45.1394 136.78 44.3293 136.912 43.3705C137.044 42.4117 137.177 41.4859 137.309 40.5932L139.938 25.9131H144.649L147.327 40.5932C147.426 41.2545 147.526 41.9488 147.625 42.6762C147.724 43.3705 147.807 44.0318 147.873 44.66C147.972 45.2882 148.038 45.8006 148.071 46.1974C148.104 46.5942 148.121 46.7925 148.121 46.7925H148.319C148.319 46.7925 148.336 46.6107 148.369 46.247C148.435 45.8833 148.501 45.4039 148.567 44.8088C148.666 44.2136 148.782 43.5524 148.914 42.825C149.046 42.0645 149.195 41.3206 149.361 40.5932L152.634 25.9131H156.75L150.253 52H145.74L143.012 37.1216C142.847 36.2289 142.698 35.3196 142.566 34.3938C142.467 33.4681 142.384 32.6911 142.318 32.0629C142.252 31.4347 142.219 31.1206 142.219 31.1206H142.02C142.02 31.1206 141.987 31.4347 141.921 32.0629C141.855 32.6911 141.756 33.4681 141.624 34.3938C141.525 35.2866 141.392 36.1958 141.227 37.1216L138.549 52H134.036ZM160.429 52V25.9131H164.495V52H160.429ZM160.33 20.8545V16.143H164.545V20.8545H160.33ZM171.038 52V25.9131H174.113L174.658 29.3352H174.956C175.286 28.3433 175.799 27.434 176.493 26.6075C177.187 25.7478 178.146 25.318 179.37 25.318C179.932 25.318 180.395 25.3841 180.758 25.5164C181.122 25.6486 181.304 25.7148 181.304 25.7148V29.9303H179.965C179.105 29.9303 178.295 30.1287 177.535 30.5254C176.807 30.8891 176.212 31.5173 175.749 32.4101C175.319 33.3028 175.104 34.5261 175.104 36.0801V52H171.038ZM193.544 52.5951C190.304 52.5951 187.841 51.5371 186.155 49.4211C184.502 47.272 183.675 43.7838 183.675 38.9566C183.675 34.2616 184.485 30.823 186.105 28.6408C187.758 26.4256 190.222 25.318 193.495 25.318C196.338 25.318 198.471 26.2768 199.893 28.1945C201.347 30.0791 202.075 33.2036 202.075 37.5679V40.1468H187.94C187.973 43.1887 188.453 45.4204 189.379 46.8421C190.304 48.2639 191.726 48.9747 193.644 48.9747C194.933 48.9747 195.991 48.4622 196.818 47.4373C197.644 46.3793 198.058 44.941 198.058 43.1225H202.075C202.075 46.0321 201.281 48.3465 199.694 50.0658C198.14 51.752 196.09 52.5951 193.544 52.5951ZM187.99 36.5264H197.81C197.81 34.0467 197.446 32.1621 196.719 30.8726C195.991 29.5831 194.917 28.9384 193.495 28.9384C191.676 28.9384 190.337 29.5831 189.478 30.8726C188.651 32.129 188.155 34.0136 187.99 36.5264Z" fill="#C3C9CB"/>
<defs>
<clipPath id="clip0_2_482">
<rect width="58.2547" height="58.2547" fill="white" transform="translate(0 5.37256)"/>
</clipPath>
</defs>
</svg>

<svg width="268" height="69" fill="none" xmlns="http://www.w3.org/2000/svg"><g clip-path="url(#a)"><path d="m23.344 47.195-.635-1.552a8.21 8.21 0 0 0-4.725-4.725l-1.551-.635-.635-.282-3.597-1.41-.776-.283-3.738-1.48-3.032-1.2c-.494-.211-.776-.564-.776-1.128 0-.494.282-.917.776-1.129l3.032-1.199 3.738-1.48.776-.283-1.481-3.455-.07-.142-3.597 1.411-4.232 1.693c-1.058.423-1.763.987-2.186 1.763C.212 32.384 0 33.37 0 34.499c0 1.13.212 2.117.635 2.892.423.776 1.128 1.34 2.186 1.693l4.232 1.693 3.596 1.41.142.07 3.455 1.34 1.2-2.75-1.2 2.75.776.283a8.21 8.21 0 0 1 4.725 4.725l.282.776 3.597-1.552-.282-.634Z" fill="#DDE1E2"/><path d="m50.99 49.875-1.833-4.161-1.552-3.527-.07-.14-1.481-3.457-1.552.635 1.552-.635-.353-.705a8.504 8.504 0 0 1 0-6.7l.353-.705-3.668-1.41-.282.634-.635 1.552a8.504 8.504 0 0 0 0 6.7l.635 1.551.282.635 1.552 3.597 1.622-.635-1.622.635.352.776 1.623 3.667 1.34 3.033c.211.493.14.916-.282 1.27-.353.352-.776.422-1.27.281l-3.033-1.34-3.667-1.622-.776-.353-1.34 3.456-.07.141L40.34 54.6l4.161 1.834c.987.423 1.975.564 2.75.352.847-.211 1.623-.776 2.47-1.551.845-.847 1.339-1.623 1.55-2.469.283-.987.142-1.904-.282-2.891Z" fill="#C3C9CB"/><path d="m35.404 12.425-1.692-4.231c-.424-1.058-.988-1.764-1.693-2.187-.776-.423-1.693-.634-2.892-.634-1.128 0-2.115.211-2.891.634-.776.423-1.34 1.129-1.693 2.187l-1.692 4.231-1.411 3.597.141.07 2.257.988-2.257-.987-.141-.071-.07.141-1.34 3.456-.283.776a8.21 8.21 0 0 1-4.725 4.725l-.776.282 1.552 3.597.635-.282 1.551-.635a8.21 8.21 0 0 0 4.725-4.725l.635-1.552.282-.634-.987-.424.987.424 1.41-3.668.283-.776L26.8 12.99l1.199-3.032c.212-.494.564-.776 1.128-.776h.07c.495 0 .918.282 1.13.776l1.198 3.032 1.481 3.738.282.776 3.456-1.481.141-.07-1.48-3.527Z" fill="#DDE1E2"/><path d="M51.273 16.375c-.212-.847-.776-1.623-1.552-2.469-.846-.846-1.622-1.34-2.468-1.551-.847-.212-1.764-.141-2.75.352l-4.162 1.834-3.526 1.552h-.141l-3.456 1.48-.776.283a8.504 8.504 0 0 1-6.7 0l-.776-.353-1.41 3.667.634.282 1.552.635a8.504 8.504 0 0 0 6.7 0l1.552-.634.634-.283-.282-.634.282.634 3.597-1.551-1.34-3.456v-.07.07l1.34 3.456.776-.353 3.667-1.622 3.033-1.34c.494-.211.917-.14 1.27.282.352.353.423.776.282 1.27l-1.34 3.032-1.622 3.668-.353.775 3.456 1.34.14.071 1.552-3.526 1.834-4.161c.494-.917.635-1.834.353-2.68Z" fill="#C3C9CB"/><path d="M57.62 31.608c-.423-.775-1.128-1.34-2.186-1.763l-4.232-1.692-3.597-1.41-.07.07.07-.07-.14-.071-3.457-1.34-.775-.212a8.21 8.21 0 0 1-4.726-4.725l-.282-.776-3.597 1.552.282.634.635 1.552a8.21 8.21 0 0 0 4.725 4.725l1.552.635.635.282 3.597 1.41.916-2.045-.916 2.045.776.283 3.737 1.48 3.033 1.2c.494.211.776.564.776 1.128 0 .494-.282.846-.776 1.128l-3.033 1.2-3.737 1.48-.776.282 1.48 3.456.071.141 3.597-1.41 4.232-1.693c1.058-.423 1.763-.987 2.186-1.693.423-.775.635-1.692.635-2.891 0-1.129-.212-2.116-.635-2.892Z" fill="#DDE1E2"/><path d="m33.994 47.547-1.552-.705a8.504 8.504 0 0 0-6.7 0l-1.552.705-.634.282-3.597 1.552-.776.353-3.667 1.622-2.892 1.27c-.494.21-.917.14-1.27-.283-.352-.353-.422-.776-.281-1.27l1.34-3.032 1.622-3.667.352-.776-3.455-1.34-.142-.07-1.551 3.526-1.834 4.16c-.423.988-.564 1.975-.352 2.751.211.846.775 1.622 1.551 2.469.847.846 1.622 1.34 2.469 1.551.846.212 1.763.141 2.75-.353l4.161-1.833 3.526-1.552.142-.07 3.455-1.481-.846-2.187.846 2.187.706-.353a8.504 8.504 0 0 1 6.7 0l.775.353 1.41-3.597-.704-.212ZM17.914 14.47l-4.161-1.833c-.988-.424-1.975-.565-2.75-.353-.847.212-1.623.776-2.47 1.552-.846.846-1.34 1.622-1.55 2.468-.212.846-.142 1.763.352 2.75l1.833 4.162 1.552 3.526.07.14 1.482 3.457 1.763-.706-1.763.706.352.776a8.504 8.504 0 0 1 0 6.7l-.352.705 3.596 1.41.283-.634.634-1.552a8.504 8.504 0 0 0 0-6.7l-.705-1.552-.282-.634-1.552-3.597-.352-.776-1.622-3.667-1.34-3.033c-.212-.494-.142-.917.282-1.27.352-.352.775-.423 1.27-.282l3.032 1.34 3.667 1.623.776.352 1.34-3.456.07-.14-3.455-1.482Z" fill="#C3C9CB"/><path d="m42.457 40.001-.635.282-1.552.635a8.21 8.21 0 0 0-4.725 4.725l-.635 1.552-.282.634-1.41 3.597-.282.776-1.481 3.738-1.2 3.033c-.21.493-.563.775-1.128.775-.493 0-.916-.282-1.128-.775L26.8 55.94l-1.481-3.738-.282-.776-3.456 1.481-.141.07 1.41 3.598 1.693 4.231c.423 1.058.988 1.763 1.693 2.187.776.423 1.692.634 2.891.634 1.129 0 2.116-.211 2.892-.634.776-.424 1.34-1.129 1.693-2.187l1.692-4.231 1.41-3.597h-.07.07l.071-.141 1.34-3.456-1.904-.846 1.904.846.282-.776a8.21 8.21 0 0 1 4.726-4.725l.775-.282L42.457 40Z" fill="#DDE1E2"/></g><path d="M72.305 52V17.978h19.64v3.967H76.67v11.01h13.49v3.968H76.67V52h-4.365Zm24.964 0V25.913h4.067V52h-4.067Zm-.1-31.145v-4.712h4.216v4.712H97.17Zm14.825 40.171c-2.116 0-3.719-.611-4.81-1.835-1.091-1.19-1.637-2.645-1.637-4.364 0-1.256.298-2.397.893-3.422.628-1.025 1.454-1.736 2.479-2.133a4.855 4.855 0 0 1-1.587-1.686 4.947 4.947 0 0 1-.545-2.232c0-1.058.331-1.967.992-2.727.694-.794 1.587-1.39 2.678-1.786a8.557 8.557 0 0 1-2.232-2.827c-.529-1.157-.793-2.463-.793-3.918 0-2.744.76-4.893 2.281-6.447 1.521-1.554 3.604-2.331 6.249-2.331 1.356 0 2.612.314 3.769.942 1.157-.628 1.951-1.339 2.381-2.132a7.619 7.619 0 0 0 .843-2.43h3.571c0 1.553-.397 2.893-1.191 4.017-.76 1.124-1.818 1.868-3.174 2.232.728.727 1.29 1.62 1.686 2.678.43 1.025.645 2.182.645 3.471 0 2.712-.76 4.844-2.281 6.398-1.488 1.554-3.505 2.348-6.051 2.38h-2.727c-.662 0-1.224.232-1.687.695-.463.43-.694.975-.694 1.636 0 .629.231 1.174.694 1.637.496.463 1.058.694 1.687.694h7.439c1.884 0 3.372.612 4.463 1.835 1.124 1.19 1.687 2.612 1.687 4.266 0 1.355-.298 2.595-.893 3.72-.562 1.123-1.422 2.016-2.579 2.677-1.124.662-2.513.992-4.166.992h-7.39Zm.645-3.521h7.191a2.89 2.89 0 0 0 2.182-.942c.596-.595.893-1.306.893-2.133 0-.86-.248-1.587-.744-2.182-.496-.562-1.273-.843-2.331-.843h-7.191c-1.025 0-1.785.28-2.281.843-.496.595-.744 1.323-.744 2.182 0 .827.248 1.538.744 2.133.496.628 1.256.942 2.281.942Zm3.273-18.003c1.455 0 2.563-.48 3.323-1.438.761-.992 1.141-2.315 1.141-3.968 0-1.752-.38-3.091-1.141-4.017-.76-.926-1.868-1.389-3.323-1.389-1.421 0-2.512.496-3.273 1.488-.76.96-1.141 2.265-1.141 3.918 0 1.72.381 3.059 1.141 4.018.761.925 1.852 1.388 3.273 1.388ZM134.036 52l-6.497-26.087h4.463l3.274 14.68c.165.694.33 1.538.496 2.53.165.958.297 1.818.396 2.579l.149 1.09h.198l.1-.991c.066-.662.165-1.472.297-2.43.132-.96.265-1.885.397-2.778l2.629-14.68h4.711l2.678 14.68c.099.661.199 1.356.298 2.083.099.694.182 1.356.248 1.984.099.628.165 1.14.198 1.537l.05.595h.198l.05-.545c.066-.364.132-.843.198-1.438.099-.595.215-1.257.347-1.984.132-.76.281-1.504.447-2.232l3.273-14.68h4.116L150.253 52h-4.513l-2.728-14.878a67.181 67.181 0 0 1-.446-2.728 1354.855 1354.855 0 0 1-.347-3.273h-.199l-.099.942a65.428 65.428 0 0 1-.297 2.33 41.83 41.83 0 0 1-.397 2.729L138.549 52h-4.513Zm26.393 0V25.913h4.066V52h-4.066Zm-.099-31.145v-4.712h4.215v4.712h-4.215ZM171.038 52V25.913h3.075l.545 3.422h.298a8.278 8.278 0 0 1 1.537-2.727c.694-.86 1.653-1.29 2.877-1.29.562 0 1.025.066 1.388.198l.546.199v4.215h-1.339c-.86 0-1.67.199-2.43.595-.728.364-1.323.992-1.786 1.885-.43.893-.645 2.116-.645 3.67V52h-4.066Zm22.506.595c-3.24 0-5.703-1.058-7.389-3.174-1.653-2.149-2.48-5.637-2.48-10.464 0-4.695.81-8.134 2.43-10.316 1.653-2.215 4.117-3.323 7.39-3.323 2.843 0 4.976.959 6.398 2.877 1.454 1.884 2.182 5.009 2.182 9.373v2.579H187.94c.033 3.042.513 5.273 1.439 6.695.925 1.422 2.347 2.133 4.265 2.133 1.289 0 2.347-.513 3.174-1.538.826-1.058 1.24-2.496 1.24-4.314h4.017c0 2.91-.794 5.224-2.381 6.943-1.554 1.686-3.604 2.53-6.15 2.53Zm-5.554-16.069h9.82c0-2.48-.364-4.364-1.091-5.653-.728-1.29-1.802-1.935-3.224-1.935-1.819 0-3.158.645-4.017 1.935-.827 1.256-1.323 3.14-1.488 5.653Z" fill="#C3C9CB"/><defs><clipPath id="a"><path fill="#fff" transform="translate(0 5.373)" d="M0 0h58.255v58.255H0z"/></clipPath></defs></svg>
